tools/download-figma-icons/icons/solid/search.svg

<svg width="24" height="24" viewBox="0 0 24 24" fill="none" xmlns="http://www.w3.org/2000/svg">
<path fill-rule="evenodd" clip-rule="evenodd" d="M15.7275 10.8449C15.315 10.8449 14.9775 10.5156 14.9775 10.0949C14.9775 7.82239 13.1325 5.96989 10.8525 5.96989C10.44 5.96989 10.1025 5.64064 10.1025 5.21989C10.1025 4.80739 10.44 4.46989 10.8525 4.46989C13.9575 4.46989 16.4775 6.99739 16.4775 10.0949C16.4775 10.5156 16.1475 10.8449 15.7275 10.8449ZM20.7825 18.9749L16.3725 14.5649C17.3625 13.3424 17.955 11.7899 17.955 10.0949C17.955 6.17988 14.7675 2.99988 10.8525 2.99988C6.9375 2.99988 3.75 6.17988 3.75 10.0949C3.75 14.0174 6.9375 17.1974 10.8525 17.1974C12.54 17.1974 14.1 16.6049 15.315 15.6224L19.725 20.0324C19.8675 20.1824 20.0625 20.2574 20.25 20.2574C20.445 20.2574 20.6325 20.1824 20.7825 20.0324C21.075 19.7399 21.075 19.2674 20.7825 18.9749Z" fill="black"/>
</svg>

<svg width="24" height="24" viewBox="0 0 24 24" fill="none" xmlns="http://www.w3.org/2000/svg"><path fill-rule="evenodd" clip-rule="evenodd" d="M15.727 10.845a.747.747 0 0 1-.75-.75 4.127 4.127 0 0 0-4.125-4.125.747.747 0 0 1-.75-.75c0-.413.338-.75.75-.75a5.632 5.632 0 0 1 5.625 5.625c0 .42-.33.75-.75.75Zm5.055 8.13-4.41-4.41a7.073 7.073 0 0 0 1.583-4.47C17.955 6.18 14.768 3 10.853 3 6.937 3 3.75 6.18 3.75 10.095a7.107 7.107 0 0 0 7.102 7.102 7.089 7.089 0 0 0 4.463-1.575l4.41 4.41c.142.15.337.225.525.225a.744.744 0 0 0 .532-.225.747.747 0 0 0 0-1.057Z" fill="currentColor"/></svg>
